public/brands/analytics.svg

<?xml version="1.0" encoding="UTF-8"?>
<svg width="100%" height="100%" viewBox="0 0 142 142" version="1.1" xmlns="http://www.w3.org/2000/svg" xmlns:xlink="http://www.w3.org/1999/xlink">
    <!-- Generator: Sketch 41.1 (35376) - http://www.bohemiancoding.com/sketch -->
    <title>analytics</title>
    <desc>Created with Sketch.</desc>
    <defs></defs>
    <g id="Page-1" stroke="none" stroke-width="1" fill="none" fill-rule="evenodd">
        <g id="analytics">
            <path d="M104.47,70.9 L102.14,69.02 L123.2,40.55 L125.53,42.45 L104.47,70.9 Z M98.6,69.65 L82,10.08 L84.86,9.18 L101.43,68.76 L98.6,69.65 Z M60.53,53.18 L57.93,51.68 L79.63,8.58 L82.23,10.08 L60.53,53.18 Z M41.3,38.74 L55.83,52.24 L53.79,54.44 L39.23,40.94 L41.3,38.74 Z M34.6,39.2 L37.16,40.73 L17.48,73.47 L14.91,71.93 L34.6,39.2 Z" id="Shape" fill="#DDDDDD"></path>
            <ellipse id="Oval" fill="#5BB862" cx="126.155" cy="39.01" rx="3.344" ry="3.355"></ellipse>
            <path d="M126.16,45.86 C122.38,45.86 119.31,42.79 119.31,39.01 C119.31,35.25 122.41,32.17 126.18,32.17 C129.95,32.17 133.02,35.25 133.02,39.03 C133.02,42.83 129.96,45.89 126.19,45.89 L126.16,45.86 Z M126.16,38.86 C126.06,38.86 126,38.93 126,39.01 C126,39.19 126.3,39.19 126.3,39.01 C126.3,38.95 126.24,38.89 126.16,38.89 L126.16,38.86 Z" id="Shape" fill="#EC8E51"></path>
            <ellipse id="Oval" fill="#5BB862" cx="82.474" cy="6.855" rx="3.344" ry="3.355"></ellipse>
            <path d="M82.47,13.7 C78.7,13.7 75.63,10.64 75.63,6.86 C75.63,3.08 78.7,0 82.47,0 C86.25,0 89.32,3.08 89.32,6.86 C89.32,10.64 86.25,13.71 82.48,13.71 L82.47,13.7 Z M82.47,6.7 C82.39,6.7 82.32,6.78 82.32,6.86 C82.32,7.02 82.62,7.02 82.62,6.86 C82.62,6.76 82.56,6.71 82.47,6.71 L82.47,6.7 Z" id="Shape" fill="#EC8E51"></path>
            <ellipse id="Oval" fill="#5BB862" cx="56.953" cy="55.004" rx="3.344" ry="3.355"></ellipse>
            <path d="M56.95,61.86 C53.18,61.86 50.11,58.78 50.11,55 C50.11,51.22 53.21,48.15 56.97,48.15 C60.75,48.15 63.82,51.22 63.82,55 C63.82,58.78 60.76,61.86 56.98,61.86 L56.95,61.86 Z M56.95,54.86 C56.87,54.86 56.8,54.92 56.8,55 C56.8,55.16 57.1,55.16 57.1,55 C57.1,54.92 57.04,54.86 56.95,54.86 Z" id="Shape" fill="#EC8E51"></path>
            <ellipse id="Oval" fill="#5BB862" cx="37.924" cy="37.728" rx="3.344" ry="3.355"></ellipse>
            <path d="M37.93,44.58 C34.15,44.58 31.08,41.51 31.08,37.73 C31.08,33.95 34.15,30.87 37.93,30.87 C41.7,30.87 44.77,33.95 44.77,37.73 C44.77,41.51 41.7,44.58 37.92,44.58 L37.93,44.58 Z M37.93,37.58 C37.83,37.58 37.77,37.65 37.77,37.73 C37.77,37.89 38.07,37.89 38.07,37.73 C38.07,37.65 38.01,37.58 37.93,37.58 Z" id="Shape" fill="#EC8E51"></path>
            <ellipse id="Oval" fill="#5BB862" cx="13.845" cy="75.145" rx="3.344" ry="3.355"></ellipse>
            <path d="M13.84,82 C10.07,82 7,78.92 7,75.15 C7,71.37 10.07,68.29 13.84,68.29 C17.62,68.29 20.69,71.35 20.69,75.13 C20.69,78.9 17.59,81.98 13.83,81.98 L13.84,82 Z M13.84,75 C13.76,75 13.69,75.07 13.69,75.15 C13.69,75.31 13.99,75.31 13.99,75.15 C13.99,75.05 13.91,75 13.82,75 L13.84,75 Z" id="Shape" fill="#EC8E51"></path>
            <ellipse id="Oval" fill="#5BB862" cx="101.195" cy="72.561" rx="3.344" ry="3.355"></ellipse>
            <path d="M101.2,79.42 C97.42,79.42 94.35,76.34 94.35,72.56 C94.35,68.78 97.42,65.71 101.2,65.71 C104.97,65.71 108.04,68.81 108.04,72.58 C108.04,76.36 104.97,79.44 101.19,79.44 L101.2,79.42 Z M101.2,72.42 C101.1,72.42 101.04,72.48 101.04,72.56 C101.04,72.72 101.34,72.72 101.34,72.56 C101.34,72.48 101.28,72.42 101.19,72.42 L101.2,72.42 Z" id="Shape" fill="#EC8E51"></path>
            <path d="M2.77610442,133.566265 L0,133.566265 L10.753012,108.686747 L13.2128514,108.686747 L23.8955823,133.566265 L21.0843373,133.566265 L18.3433735,127.03012 L5.48192771,127.03012 L2.77610442,133.566265 Z M6.43072289,124.710843 L17.3945783,124.710843 L11.9126506,111.497992 L6.43072289,124.710843 Z M29.577616,117.120482 C29.6244703,117.565598 29.6596105,118.057561 29.6830377,118.596386 C29.7064649,119.13521 29.7181783,119.58032 29.7181783,119.931727 L29.7884594,119.931727 C30.2570026,118.971213 31.0183738,118.192272 32.0725959,117.59488 C33.1268181,116.997487 34.2395914,116.698795 35.4109494,116.698795 C37.4959665,116.698795 39.0597059,117.319606 40.1022144,118.561245 C41.144723,119.802884 41.6659694,121.442761 41.6659694,123.480924 L41.6659694,133.566265 L39.2764112,133.566265 L39.2764112,124.464859 C39.2764112,123.598055 39.2061308,122.813257 39.0655678,122.110442 C38.9250049,121.407627 38.6848801,120.804387 38.3451863,120.300703 C38.0054925,119.797019 37.5486698,119.40462 36.9747044,119.123494 C36.400739,118.842368 35.6803647,118.701807 34.8135598,118.701807 C34.1810265,118.701807 33.5660728,118.830655 32.9686803,119.088353 C32.3712877,119.346052 31.8383279,119.738451 31.3697847,120.265562 C30.9012415,120.792673 30.5264126,121.460337 30.2452867,122.268574 C29.9641608,123.076811 29.8236,124.031454 29.8236,125.13253 L29.8236,133.566265 L27.4340417,133.566265 L27.4340417,120.73996 C27.4340417,120.294844 27.4223283,119.720887 27.3989012,119.018072 C27.375474,118.315258 27.3403338,117.682734 27.2934795,117.120482 L29.577616,117.120482 Z M58.2415774,122.953815 C58.2415774,121.524759 57.8667485,120.458839 57.1170794,119.756024 C56.3674104,119.053209 55.2780638,118.701807 53.8490071,118.701807 C52.8650665,118.701807 51.951421,118.877508 51.1080433,119.228916 C50.2646656,119.580323 49.550148,120.048859 48.964469,120.634538 L47.6291276,119.053213 C48.3085152,118.373825 49.2045906,117.811582 50.3173806,117.366466 C51.4301707,116.92135 52.6893616,116.698795 54.0949911,116.698795 C54.9852231,116.698795 55.8168748,116.821786 56.589971,117.067771 C57.3630672,117.313756 58.0424446,117.682728 58.6281236,118.174699 C59.2138026,118.666669 59.6706253,119.28748 59.9986055,120.037149 C60.3265858,120.786818 60.4905734,121.665323 60.4905734,122.672691 L60.4905734,129.876506 C60.4905734,130.509039 60.5140002,131.16499 60.5608545,131.844378 C60.6077088,132.523765 60.6779893,133.097722 60.7716979,133.566265 L58.6281236,133.566265 C58.5578421,133.168003 58.4992751,132.734607 58.4524208,132.266064 C58.4055665,131.797521 58.3821397,131.340698 58.3821397,130.895582 L58.3118585,130.895582 C57.5621895,131.996659 56.7129677,132.787314 55.7641678,133.26757 C54.8153679,133.747827 53.673311,133.987952 52.337963,133.987952 C51.7054297,133.987952 51.0553358,133.900101 50.3876618,133.724398 C49.7199877,133.548694 49.1108908,133.261716 48.5603525,132.863454 C48.0098143,132.465192 47.5529916,131.949802 47.1898706,131.317269 C46.8267496,130.684736 46.6451919,129.911651 46.6451919,128.997992 C46.6451919,127.732925 46.9673105,126.731429 47.6115573,125.993474 C48.2558042,125.255518 49.1167394,124.704988 50.1943887,124.341867 C51.272038,123.978747 52.507802,123.744478 53.901718,123.639056 C55.2956339,123.533634 56.7422393,123.480924 58.2415774,123.480924 L58.2415774,122.953815 Z M57.5387662,125.343373 C56.5548255,125.343373 55.5650429,125.38437 54.5693887,125.466365 C53.5737344,125.548361 52.6718023,125.712348 51.8635654,125.958333 C51.0553284,126.204318 50.3935211,126.561577 49.8781236,127.03012 C49.3627261,127.498664 49.1050312,128.119474 49.1050312,128.89257 C49.1050312,129.478249 49.2163086,129.970212 49.4388666,130.368474 C49.6614246,130.766736 49.9601164,131.088854 50.3349509,131.334839 C50.7097855,131.580825 51.1256113,131.756526 51.5824409,131.861948 C52.0392705,131.96737 52.5019499,132.02008 52.9704931,132.02008 C53.8138708,132.02008 54.5635286,131.873663 55.2194891,131.580823 C55.8754495,131.287984 56.4259795,130.889728 56.8710955,130.386044 C57.3162115,129.88236 57.6559002,129.302547 57.8901718,128.646586 C58.1244434,127.990626 58.2415774,127.299535 58.2415774,126.573293 L58.2415774,125.343373 L57.5387662,125.343373 Z M69.1244143,133.566265 L66.7348561,133.566265 L66.7348561,107 L69.1244143,107 L69.1244143,133.566265 Z M81.2020303,131.001004 L81.2723115,131.001004 L86.367693,117.120482 L88.9680946,117.120482 L80.7803436,137.818273 C80.2883733,139.08334 79.6617062,140.096549 78.9003235,140.857932 C78.1389409,141.619314 77.0437376,142 75.614681,142 C74.888439,142 74.1739214,141.92972 73.4711067,141.789157 L73.7170906,139.610442 C74.2793424,139.797859 74.8650126,139.891566 75.4741187,139.891566 C76.2940693,139.891566 76.9383065,139.639728 77.4068496,139.136044 C77.8753928,138.63236 78.2853619,137.911986 78.6367693,136.9749 L79.9721107,133.531124 L72.9439982,117.120482 L75.614681,117.120482 L81.2020303,131.001004 Z M100.132056,119.123494 L95.4935018,119.123494 L95.4935018,128.716867 C95.4935018,129.325974 95.5520688,129.82965 95.6692046,130.227912 C95.7863404,130.626173 95.9561847,130.936579 96.1787428,131.159137 C96.4013008,131.381695 96.6648523,131.533969 96.9694054,131.615964 C97.2739585,131.697959 97.6019338,131.738956 97.9533411,131.738956 C98.2813214,131.738956 98.6268668,131.692102 98.9899877,131.598394 C99.3531087,131.504685 99.6986541,131.375838 100.026634,131.211847 L100.132056,133.285141 C99.7103672,133.449131 99.2711145,133.572121 98.8142849,133.654116 C98.3574553,133.736112 97.8596357,133.777108 97.320811,133.777108 C96.875695,133.777108 96.4071589,133.718541 95.9151885,133.601406 C95.4232182,133.48427 94.9663955,133.261715 94.5447066,132.933735 C94.1230178,132.605755 93.7774723,132.160645 93.50806,131.598394 C93.2386477,131.036142 93.1039436,130.298197 93.1039436,129.384538 L93.1039436,119.123494 L89.695309,119.123494 L89.695309,117.120482 L93.1039436,117.120482 L93.1039436,112.481928 L95.4935018,112.481928 L95.4935018,117.120482 L100.132056,117.120482 L100.132056,119.123494 Z M106.306058,133.566265 L103.916499,133.566265 L103.916499,117.120482 L106.306058,117.120482 L106.306058,133.566265 Z M106.798025,110.795181 C106.798025,111.287151 106.622324,111.691263 106.270917,112.00753 C105.91951,112.323797 105.532967,112.481928 105.111278,112.481928 C104.68959,112.481928 104.303047,112.323797 103.95164,112.00753 C103.600233,111.691263 103.424531,111.287151 103.424531,110.795181 C103.424531,110.30321 103.600233,109.899098 103.95164,109.582831 C104.303047,109.266565 104.68959,109.108434 105.111278,109.108434 C105.532967,109.108434 105.91951,109.266565 106.270917,109.582831 C106.622324,109.899098 106.798025,110.30321 106.798025,110.795181 Z M124.533272,120.880522 C124.13501,120.247989 123.555197,119.726742 122.793814,119.316767 C122.032431,118.906792 121.206637,118.701807 120.316405,118.701807 C119.355891,118.701807 118.489099,118.871652 117.716003,119.211345 C116.942907,119.551039 116.281099,120.019575 115.730561,120.616968 C115.180023,121.21436 114.75834,121.917165 114.465501,122.725402 C114.172661,123.533639 114.026244,124.406287 114.026244,125.343373 C114.026244,126.28046 114.172661,127.147252 114.465501,127.943775 C114.75834,128.740298 115.174166,129.437246 115.712991,130.034639 C116.251816,130.632031 116.907766,131.100567 117.680862,131.440261 C118.453959,131.779955 119.32075,131.949799 120.281264,131.949799 C121.335486,131.949799 122.225705,131.750671 122.951947,131.35241 C123.678189,130.954148 124.275572,130.438758 124.744115,129.806225 L126.536284,131.141566 C125.833469,132.008371 124.972534,132.699462 123.953453,133.214859 C122.934371,133.730257 121.710321,133.987952 120.281264,133.987952 C118.945916,133.987952 117.739435,133.771254 116.661786,133.337851 C115.584137,132.904449 114.664635,132.301209 113.903252,131.528112 C113.141869,130.755016 112.550342,129.841371 112.128654,128.787149 C111.706965,127.732926 111.496123,126.585013 111.496123,125.343373 C111.496123,124.101734 111.706965,122.953821 112.128654,121.899598 C112.550342,120.845376 113.141869,119.931731 113.903252,119.158635 C114.664635,118.385538 115.584137,117.782298 116.661786,117.348896 C117.739435,116.915493 118.945916,116.698795 120.281264,116.698795 C121.38234,116.698795 122.50097,116.93892 123.637188,117.419177 C124.773405,117.899433 125.692907,118.608094 126.395722,119.545181 L124.533272,120.880522 Z M139.035587,121.021084 C138.684179,120.341697 138.15122,119.78531 137.436691,119.351908 C136.722163,118.918505 135.908081,118.701807 134.994422,118.701807 C134.572733,118.701807 134.151051,118.748661 133.729362,118.842369 C133.307673,118.936078 132.932844,119.088352 132.604864,119.299197 C132.276884,119.510041 132.013332,119.779449 131.814201,120.10743 C131.61507,120.43541 131.515506,120.821952 131.515506,121.267068 C131.515506,122.040165 131.831768,122.631691 132.464302,123.041667 C133.096835,123.451642 134.092474,123.797187 135.451249,124.078313 C137.395704,124.476575 138.830596,125.056388 139.755968,125.817771 C140.681341,126.579154 141.144021,127.604077 141.144021,128.89257 C141.144021,129.829657 140.962463,130.620311 140.599342,131.264558 C140.236221,131.908805 139.761828,132.435908 139.176149,132.845884 C138.59047,133.255859 137.928663,133.548694 137.190707,133.724398 C136.452752,133.900101 135.708951,133.987952 134.959282,133.987952 C133.717642,133.987952 132.511162,133.730257 131.339804,133.214859 C130.168446,132.699462 129.207947,131.891237 128.458278,130.790161 L130.355868,129.384538 C130.777557,130.11078 131.398367,130.719877 132.218318,131.211847 C133.038268,131.703818 133.9402,131.949799 134.924141,131.949799 C135.439539,131.949799 135.931501,131.902946 136.400045,131.809237 C136.868588,131.715528 137.278557,131.551541 137.629964,131.317269 C137.981372,131.082997 138.262493,130.784306 138.473338,130.421185 C138.684182,130.058064 138.789603,129.607098 138.789603,129.068273 C138.789603,128.201468 138.373777,127.551374 137.542113,127.117972 C136.710449,126.684569 135.509825,126.280457 133.940205,125.905622 C133.448235,125.788487 132.926988,125.642069 132.37645,125.466365 C131.825912,125.290662 131.316379,125.032967 130.847836,124.693273 C130.379293,124.353579 129.99275,123.92604 129.688197,123.410643 C129.383644,122.895245 129.23137,122.251008 129.23137,121.477912 C129.23137,120.634534 129.395358,119.91416 129.723338,119.316767 C130.051318,118.719375 130.490571,118.227412 131.041109,117.840863 C131.591647,117.454315 132.218314,117.167337 132.921129,116.97992 C133.623944,116.792502 134.350175,116.698795 135.099844,116.698795 C136.247775,116.698795 137.360548,116.95649 138.438197,117.471888 C139.515847,117.987285 140.324071,118.713516 140.862896,119.650602 L139.035587,121.021084 Z" id="Analytics" fill="#EEEEEE"></path>
        </g>
    </g>
</svg>

<svg viewBox="0 0 142 142" xmlns="http://www.w3.org/2000/svg"><title>analytics</title><g fill="none" fill-rule="evenodd"><path d="M104.47 70.9l-2.33-1.88 21.06-28.47 2.33 1.9-21.06 28.45zm-5.87-1.25L82 10.08l2.86-.9 16.57 59.58-2.83.89zM60.53 53.18l-2.6-1.5 21.7-43.1 2.6 1.5-21.7 43.1zM41.3 38.74l14.53 13.5-2.04 2.2-14.56-13.5 2.07-2.2zm-6.7.46l2.56 1.53-19.68 32.74-2.57-1.54L34.6 39.2z" fill="#DDD"/><ellipse fill="#5BB862" cx="126.155" cy="39.01" rx="3.344" ry="3.355"/><path d="M126.16 45.86c-3.78 0-6.85-3.07-6.85-6.85 0-3.76 3.1-6.84 6.87-6.84s6.84 3.08 6.84 6.86c0 3.8-3.06 6.86-6.83 6.86l-.03-.03zm0-7c-.1 0-.16.07-.16.15 0 .18.3.18.3 0 0-.06-.06-.12-.14-.12v-.03z" fill="#EC8E51"/><ellipse fill="#5BB862" cx="82.474" cy="6.855" rx="3.344" ry="3.355"/><path d="M82.47 13.7c-3.77 0-6.84-3.06-6.84-6.84S78.7 0 82.47 0c3.78 0 6.85 3.08 6.85 6.86 0 3.78-3.07 6.85-6.84 6.85l-.01-.01zm0-7c-.08 0-.15.08-.15.16 0 .16.3.16.3 0 0-.1-.06-.15-.15-.15V6.7z" fill="#EC8E51"/><ellipse fill="#5BB862" cx="56.953" cy="55.004" rx="3.344" ry="3.355"/><path d="M56.95 61.86c-3.77 0-6.84-3.08-6.84-6.86 0-3.78 3.1-6.85 6.86-6.85 3.78 0 6.85 3.07 6.85 6.85s-3.06 6.86-6.84 6.86h-.03zm0-7c-.08 0-.15.06-.15.14 0 .16.3.16.3 0 0-.08-.06-.14-.15-.14z" fill="#EC8E51"/><ellipse fill="#5BB862" cx="37.924" cy="37.728" rx="3.344" ry="3.355"/><path d="M37.93 44.58a6.854 6.854 0 0 1 0-13.71c3.77 0 6.84 3.08 6.84 6.86 0 3.78-3.07 6.85-6.85 6.85h.01zm0-7c-.1 0-.16.07-.16.15 0 .16.3.16.3 0 0-.08-.06-.15-.14-.15z" fill="#EC8E51"/><ellipse fill="#5BB862" cx="13.845" cy="75.145" rx="3.344" ry="3.355"/><path d="M13.84 82C10.07 82 7 78.92 7 75.15c0-3.78 3.07-6.86 6.84-6.86 3.78 0 6.85 3.06 6.85 6.84 0 3.77-3.1 6.85-6.86 6.85l.01.02zm0-7c-.08 0-.15.07-.15.15 0 .16.3.16.3 0 0-.1-.08-.15-.17-.15h.02z" fill="#EC8E51"/><ellipse fill="#5BB862" cx="101.195" cy="72.561" rx="3.344" ry="3.355"/><path d="M101.2 79.42a6.854 6.854 0 1 1 0-13.71c3.77 0 6.84 3.1 6.84 6.87 0 3.78-3.07 6.86-6.85 6.86l.01-.02zm0-7c-.1 0-.16.06-.16.14 0 .16.3.16.3 0 0-.08-.06-.14-.15-.14h.01z" fill="#EC8E51"/><path d="M2.776 133.566H0l10.753-24.88h2.46l10.683 24.88h-2.812l-2.74-6.536H5.481l-2.706 6.536zm3.655-8.855h10.964l-5.482-13.213-5.482 13.213zm23.147-7.59a31.816 31.816 0 0 1 .14 2.811h.07c.469-.96 1.23-1.74 2.285-2.337a6.67 6.67 0 0 1 3.338-.896c2.085 0 3.649.62 4.691 1.862 1.043 1.242 1.564 2.882 1.564 4.92v10.085h-2.39v-9.101c0-.867-.07-1.652-.21-2.355-.141-.702-.381-1.306-.72-1.81a3.444 3.444 0 0 0-1.371-1.177c-.574-.28-1.295-.421-2.161-.421-.633 0-1.248.129-1.845.386-.598.258-1.13.65-1.6 1.178-.468.527-.843 1.194-1.124 2.003-.28.808-.421 1.762-.421 2.864v8.433h-2.39V120.74c0-.445-.012-1.02-.035-1.722a38.494 38.494 0 0 0-.106-1.898h2.285zm28.664 5.833c0-1.43-.375-2.495-1.125-3.198-.75-.703-1.839-1.054-3.268-1.054-.984 0-1.898.176-2.741.527-.843.351-1.558.82-2.144 1.406l-1.335-1.582c.68-.68 1.576-1.241 2.688-1.687 1.113-.445 2.372-.667 3.778-.667.89 0 1.722.123 2.495.369a5.923 5.923 0 0 1 2.038 1.107 5.013 5.013 0 0 1 1.37 1.862c.329.75.493 1.628.493 2.636v7.204c0 .632.023 1.288.07 1.967.047.68.117 1.254.21 1.722h-2.143c-.07-.398-.129-.831-.176-1.3-.046-.468-.07-.925-.07-1.37h-.07c-.75 1.1-1.599 1.891-2.548 2.372-.949.48-2.09.72-3.426.72a7.649 7.649 0 0 1-1.95-.264 5.46 5.46 0 0 1-1.828-.86 4.867 4.867 0 0 1-1.37-1.547c-.363-.632-.545-1.405-.545-2.319 0-1.265.322-2.267.967-3.005.644-.737 1.505-1.288 2.582-1.651 1.078-.363 2.314-.598 3.708-.703a57.576 57.576 0 0 1 4.34-.158v-.527zm-.703 2.39c-.984 0-1.974.04-2.97.122-.995.082-1.897.246-2.705.492-.809.246-1.47.604-1.986 1.072-.515.469-.773 1.09-.773 1.863 0 .585.111 1.077.334 1.475.222.399.521.72.896.967.375.246.79.422 1.247.527.457.105.92.158 1.388.158.844 0 1.594-.146 2.25-.44a4.758 4.758 0 0 0 1.651-1.194 5.28 5.28 0 0 0 1.02-1.74 6.118 6.118 0 0 0 .35-2.073v-1.23h-.702zm11.585 8.222h-2.39V107h2.39v26.566zm12.078-2.565h.07l5.096-13.88h2.6l-8.188 20.697c-.492 1.265-1.118 2.279-1.88 3.04-.761.761-1.856 1.142-3.285 1.142-.727 0-1.441-.07-2.144-.21l.246-2.18a5.52 5.52 0 0 0 1.757.282c.82 0 1.464-.252 1.933-.756.468-.504.878-1.224 1.23-2.161l1.335-3.444-7.028-16.41h2.67L81.203 131zm18.93-11.878h-4.638v9.594c0 .609.058 1.113.175 1.51.117.4.287.71.51.932.222.223.486.375.79.457.305.082.633.123.984.123a4.15 4.15 0 0 0 1.037-.14 5.237 5.237 0 0 0 1.037-.387l.105 2.073c-.422.164-.86.287-1.318.37a8.468 8.468 0 0 1-1.493.122c-.445 0-.914-.058-1.406-.176a3.557 3.557 0 0 1-1.37-.667c-.422-.328-.768-.773-1.037-1.336-.27-.562-.404-1.3-.404-2.213v-10.262h-3.409v-2.003h3.409v-4.638h2.39v4.638h4.638v2.003zm6.174 14.443h-2.39V117.12h2.39v16.446zm.492-22.77c0 .491-.176.895-.527 1.212-.351.316-.738.474-1.16.474-.421 0-.808-.158-1.16-.474-.35-.317-.526-.72-.526-1.213 0-.492.175-.896.527-1.212.351-.316.738-.475 1.16-.475.421 0 .808.159 1.159.475.351.316.527.72.527 1.212zm17.735 10.085c-.398-.633-.978-1.154-1.74-1.564a5.144 5.144 0 0 0-2.477-.615c-.96 0-1.827.17-2.6.51a5.883 5.883 0 0 0-1.985 1.405c-.551.597-.973 1.3-1.265 2.108a7.629 7.629 0 0 0-.44 2.618c0 .937.147 1.804.44 2.6a6.365 6.365 0 0 0 1.247 2.092 5.7 5.7 0 0 0 1.968 1.405c.773.34 1.64.51 2.6.51 1.054 0 1.945-.2 2.67-.598a5.466 5.466 0 0 0 1.793-1.546l1.792 1.336a7.835 7.835 0 0 1-2.583 2.073c-1.019.515-2.243.773-3.672.773-1.335 0-2.542-.217-3.62-.65-1.077-.434-1.996-1.037-2.758-1.81a8.196 8.196 0 0 1-1.774-2.74c-.422-1.055-.633-2.203-.633-3.445 0-1.241.211-2.39.633-3.443a8.196 8.196 0 0 1 1.774-2.741c.762-.773 1.681-1.377 2.759-1.81 1.077-.434 2.284-.65 3.62-.65 1.1 0 2.219.24 3.355.72 1.136.48 2.056 1.19 2.759 2.126l-1.863 1.336zm14.503.14c-.352-.68-.885-1.236-1.6-1.67-.714-.432-1.528-.65-2.442-.65-.421 0-.843.048-1.265.141a3.44 3.44 0 0 0-1.124.457c-.328.211-.592.48-.79.808-.2.328-.3.715-.3 1.16 0 .773.317 1.365.95 1.775.632.41 1.627.755 2.986 1.036 1.945.399 3.38.978 4.305 1.74.925.761 1.388 1.786 1.388 3.075 0 .937-.182 1.727-.545 2.372a4.743 4.743 0 0 1-1.423 1.58 5.746 5.746 0 0 1-1.985.88 9.602 9.602 0 0 1-2.232.263 8.9 8.9 0 0 1-3.62-.773c-1.17-.516-2.131-1.324-2.88-2.425l1.897-1.405c.422.726 1.042 1.335 1.862 1.827a5.16 5.16 0 0 0 2.706.738c.516 0 1.008-.047 1.476-.14a3.39 3.39 0 0 0 1.23-.493c.351-.234.632-.533.843-.896.211-.363.317-.814.317-1.353 0-.867-.416-1.517-1.248-1.95-.832-.433-2.032-.838-3.602-1.212a21.672 21.672 0 0 1-1.564-.44 5.37 5.37 0 0 1-1.528-.773 4.206 4.206 0 0 1-1.16-1.282c-.304-.516-.457-1.16-.457-1.933 0-.843.164-1.564.492-2.161a4.316 4.316 0 0 1 1.318-1.476 5.874 5.874 0 0 1 1.88-.861 8.42 8.42 0 0 1 2.179-.281c1.148 0 2.26.257 3.338.773 1.078.515 1.886 1.242 2.425 2.179l-1.827 1.37z" fill="#EEE"/></g></svg>
